tools/download-figma-icons/icons/solid/cash-out.svg

<svg width="24" height="24" viewBox="0 0 24 24" fill="none" xmlns="http://www.w3.org/2000/svg">
<path fill-rule="evenodd" clip-rule="evenodd" d="M18.375 4.5V4.875C18.375 6.945 14.34 8.625 9.375 8.625C4.4025 8.625 0.375 6.945 0.375 4.875V4.5C0.375 3.9 0.6075 3.3375 1.0275 2.8125C2.3625 1.17075 5.595 0 9.375 0C13.1625 0 16.41 1.17075 17.7375 2.82825C18.15 3.345 18.375 3.9075 18.375 4.5ZM12.6129 23.7495C11.6079 23.9113 10.516 24 9.375 24C4.4025 24 0.375 22.32 0.375 20.25V17.5875C1.83 19.2225 5.3175 20.3775 9.39075 20.3775C9.66642 20.3775 9.93944 20.3722 10.2093 20.3618C10.6921 21.6998 11.5316 22.8673 12.6129 23.7495ZM18.375 9.99529V7.37475C16.8908 8.99475 13.425 10.1273 9.39075 10.1273C5.3175 10.1273 1.83 8.97225 0.375 7.33725V9.99975C0.375 12.0705 4.4025 13.7498 9.375 13.7498C9.88485 13.7498 10.3849 13.732 10.8718 13.698C12.2344 11.4508 14.7037 9.94922 17.5238 9.94922C17.8114 9.94922 18.0954 9.96484 18.375 9.99529ZM10.1545 15.2413C9.90249 15.2503 9.64777 15.2549 9.39075 15.2549C5.3175 15.2549 1.83 14.0999 0.375 12.4649V15.1274C0.375 17.1974 4.4025 18.8774 9.375 18.8774C9.52907 18.8774 9.68224 18.8758 9.83442 18.8726C9.77881 18.4975 9.75 18.1136 9.75 17.723C9.75 16.8552 9.89219 16.0206 10.1545 15.2413Z" fill="black"/>
<path fill-rule="evenodd" clip-rule="evenodd" d="M17.5237 23.9967C20.9886 23.9967 23.7975 21.1879 23.7975 17.723C23.7975 14.2581 20.9886 11.4492 17.5237 11.4492C14.0589 11.4492 11.25 14.2581 11.25 17.723C11.25 21.1879 14.0589 23.9967 17.5237 23.9967Z" fill="black"/>
<path fill-rule="evenodd" clip-rule="evenodd" d="M20.7155 17.644V17.642C20.7153 17.5877 20.7049 17.5351 20.6875 17.487C20.6867 17.4847 20.6862 17.4827 20.6854 17.4804C20.6651 17.4272 20.635 17.3794 20.5977 17.3399L18.5214 15.125C18.3651 14.9583 18.112 14.9583 17.9558 15.125C17.7995 15.2915 17.7995 15.5617 17.9558 15.7285L19.3533 17.2193L14.649 17.2352C14.4281 17.236 14.2494 17.4278 14.2502 17.6634C14.2508 17.8989 14.43 18.0887 14.6503 18.0887H14.6516L19.3468 18.0728L17.9189 19.596C17.7627 19.7627 17.7627 20.0327 17.9189 20.1994C17.9971 20.2828 18.0992 20.3246 18.2016 20.3246C18.3041 20.3246 18.4065 20.2828 18.4846 20.1994L20.5987 17.9444C20.6355 17.9049 20.6654 17.8571 20.6857 17.8045C20.6857 17.8045 20.6867 17.8008 20.6873 17.7988C20.7051 17.7507 20.7153 17.6986 20.7155 17.644Z" fill="white"/>
</svg>

<svg xmlns="http://www.w3.org/2000/svg" width="24" height="24" fill="none" viewBox="0 0 24 24"><path fill="currentColor" fill-rule="evenodd" d="M18.375 4.5v.375c0 2.07-4.035 3.75-9 3.75-4.972 0-9-1.68-9-3.75V4.5c0-.6.233-1.162.653-1.687C2.362 1.17 5.595 0 9.375 0c3.787 0 7.035 1.17 8.363 2.828.412.517.637 1.08.637 1.672m-5.762 19.25c-1.005.161-2.097.25-3.238.25-4.972 0-9-1.68-9-3.75v-2.663c1.455 1.636 4.943 2.79 9.016 2.79q.413 0 .818-.015a7.8 7.8 0 0 0 2.404 3.388m5.762-13.755v-2.62c-1.484 1.62-4.95 2.752-8.984 2.752-4.073 0-7.561-1.155-9.016-2.79V10c0 2.07 4.028 3.75 9 3.75q.766 0 1.497-.052a7.77 7.77 0 0 1 7.503-3.703m-8.22 5.246q-.379.014-.764.014c-4.073 0-7.561-1.155-9.016-2.79v2.662c0 2.07 4.028 3.75 9 3.75q.23 0 .46-.004a7.84 7.84 0 0 1 .32-3.632" clip-rule="evenodd"/><path fill="currentColor" fill-rule="evenodd" d="M17.524 23.997a6.274 6.274 0 1 0 0-12.548 6.274 6.274 0 0 0 0 12.548" clip-rule="evenodd"/><path fill="currentColor" fill-rule="evenodd" d="M20.716 17.644v-.002a.5.5 0 0 0-.029-.155l-.002-.007a.4.4 0 0 0-.087-.14l-2.077-2.215a.38.38 0 0 0-.565 0 .447.447 0 0 0 0 .604l1.397 1.49-4.704.016c-.22.001-.4.193-.399.428 0 .236.18.426.4.426h.002l4.695-.016-1.428 1.523a.447.447 0 0 0 0 .603c.078.084.18.126.283.126a.4.4 0 0 0 .283-.126l2.114-2.255a.4.4 0 0 0 .087-.14l.001-.005a.5.5 0 0 0 .028-.155" clip-rule="evenodd"/></svg>
